resources/haticons/SVG/source.svg

<!-- Generated by IcoMoon.io -->
<svg version="1.1" xmlns="http://www.w3.org/2000/svg" width="24" height="24" viewBox="0 0 24 24">
<title>source</title>
<path d="M20.016 6h-8.016l-2.016-2.016h-6q-0.797 0-1.383 0.586t-0.586 1.43v12q0 0.844 0.586 1.43t1.383 0.586h16.031q0.797 0 1.383-0.586t0.586-1.43v-9.984q0-0.844-0.586-1.43t-1.383-0.586zM14.016 15.984h-8.016v-1.969h8.016v1.969zM18 12h-12v-2.016h12v2.016z"></path>
</svg>

<svg xmlns="http://www.w3.org/2000/svg" width="24" height="24"><path d="M20.016 6H12L9.984 3.984h-6q-.797 0-1.383.586T2.015 6v12q0 .844.586 1.43t1.383.586h16.031q.797 0 1.383-.586t.586-1.43V8.016q0-.844-.586-1.43T20.015 6zm-6 9.984H6v-1.969h8.016v1.969zM18 12H6V9.984h12V12z"/></svg>
